build/category/AnchorOutline.svg

<svg xmlns="http://www.w3.org/2000/svg" fill="none" viewBox="0 0 24 24" focusable="false"><path d="M0 0H24V24H0z"/><path fill="#74767B" fill-rule="evenodd" d="M14.0001 5C14.0001 5.88225 13.4288 6.63108 12.636 6.89678L12.636 8.76703L15.3278 8.76703C15.6868 8.76703 15.9778 9.05804 15.9778 9.41703C15.9778 9.77601 15.6868 10.067 15.3278 10.067L12.636 10.067L12.636 19.653C16.0661 19.3326 18.7508 16.4458 18.7508 12.9319L18.7508 12.2332L16.9955 13.9885C16.7417 14.2423 16.3301 14.2423 16.0763 13.9885C15.8225 13.7346 15.8225 13.3231 16.0763 13.0692L18.9412 10.2043C19.1271 10.0184 19.4067 9.96279 19.6496 10.0634C19.8925 10.164 20.0508 10.401 20.0508 10.6639L20.0508 12.9319C20.0508 17.3781 16.4465 20.9825 12.0003 20.9825C7.55407 20.9825 3.94971 17.3781 3.94971 12.9319L3.94971 10.6639C3.94971 10.401 4.10807 10.164 4.35096 10.0634C4.59385 9.96279 4.87343 10.0184 5.05933 10.2043L7.92426 13.0692C8.1781 13.3231 8.1781 13.7346 7.92426 13.9885C7.67042 14.2423 7.25886 14.2423 7.00502 13.9885L5.24971 12.2332L5.24971 12.9319C5.24971 16.436 7.91957 19.3166 11.336 19.6502L11.336 10.067L8.64448 10.067C8.2855 10.067 7.99448 9.77601 7.99448 9.41703C7.99448 9.05804 8.2855 8.76703 8.64448 8.76703L11.336 8.76703L11.336 6.88711C10.5579 6.61329 10.0001 5.87179 10.0001 5C10.0001 3.89543 10.8955 3 12.0001 3C13.1047 3 14.0001 3.89543 14.0001 5ZM12.7001 5C12.7001 5.3866 12.3867 5.7 12.0001 5.7C11.6135 5.7 11.3001 5.3866 11.3001 5C11.3001 4.6134 11.6135 4.3 12.0001 4.3C12.3867 4.3 12.7001 4.6134 12.7001 5Z"/><path fill="#74767B" fill-rule="evenodd" d="M12.636 6.89678C12.7548 6.85698 12.8686 6.80635 12.9762 6.74605C13.1373 6.65578 13.2847 6.54385 13.4143 6.41421L13.4144 6.41413C13.5446 6.2839 13.657 6.13579 13.7474 5.9738C13.8284 5.82882 13.8919 5.67271 13.9349 5.50836C13.9775 5.34604 14.0001 5.17566 14.0001 5C14.0001 4.82441 13.9775 4.65411 13.935 4.49185C13.8917 4.3266 13.8278 4.1697 13.7462 4.02404C13.6564 3.86374 13.5452 3.71707 13.4164 3.58791C13.4157 3.5872 13.415 3.58649 13.4143 3.58579C13.4136 3.58508 13.4129 3.58437 13.4122 3.58367C13.2831 3.45497 13.1365 3.34381 12.9764 3.25405C12.8305 3.17234 12.6734 3.10836 12.508 3.06505C12.3458 3.0226 12.1756 3 12.0001 3C11.8246 3 11.6544 3.0226 11.4922 3.06505C11.3268 3.10834 11.1698 3.17228 11.024 3.25394C10.8638 3.34372 10.7171 3.45492 10.588 3.58367C10.5873 3.58437 10.5866 3.58508 10.5859 3.58579C10.5852 3.58649 10.5845 3.5872 10.5838 3.58791C10.455 3.71708 10.3437 3.86377 10.2539 4.02409C10.1724 4.16973 10.1085 4.32663 10.0652 4.49186C10.0227 4.65412 10.0001 4.82442 10.0001 5C10.0001 5.17561 10.0227 5.34594 10.0652 5.50823C10.1085 5.67342 10.1724 5.83029 10.2539 5.97591C10.3432 6.13522 10.4536 6.28108 10.5813 6.40966C10.5829 6.41118 10.5844 6.4127 10.5859 6.41421C10.5868 6.41513 10.5877 6.41605 10.5886 6.41696C10.7175 6.54537 10.8639 6.65631 11.0238 6.74592C11.123 6.8015 11.2273 6.84887 11.336 6.88711L11.336 8.76703L8.64448 8.76703C8.2855 8.76703 7.99448 9.05804 7.99448 9.41703C7.99448 9.77601 8.2855 10.067 8.64448 10.067L11.336 10.067L11.336 19.6502C10.8884 19.6065 10.4537 19.5191 10.036 19.3923C8.96171 19.0661 8.00079 18.4792 7.2269 17.7053C6.28665 16.7651 5.62248 15.5487 5.36641 14.1883C5.28979 13.7813 5.24971 13.3613 5.24971 12.9319L5.24971 12.2332L6.58602 13.5695L7.00502 13.9885C7.25886 14.2423 7.67042 14.2423 7.92426 13.9885C8.1781 13.7346 8.1781 13.3231 7.92426 13.0692L5.05933 10.2043L5.05881 10.2038C4.87291 10.0183 4.59363 9.96288 4.35096 10.0634C4.10807 10.164 3.94971 10.401 3.94971 10.6639L3.94971 12.9319L3.94971 12.9384C3.95039 13.7944 4.08466 14.6192 4.3328 15.3929C4.43429 15.7094 4.55483 16.0173 4.69308 16.3154C5.04839 17.0815 5.52064 17.7823 6.08691 18.3949C6.64778 19.0017 7.30088 19.522 8.02396 19.9336C8.27577 20.0769 8.53607 20.207 8.80392 20.323C9.45591 20.6054 10.1526 20.804 10.8804 20.9052C11.0017 20.9221 11.1238 20.9363 11.2468 20.9477C11.2765 20.9505 11.3062 20.9531 11.336 20.9555C11.5551 20.9734 11.7766 20.9825 12.0003 20.9825C12.2142 20.9825 12.4263 20.9742 12.636 20.9578C12.6645 20.9555 12.6928 20.9532 12.7212 20.9507C12.8393 20.9402 12.9567 20.9271 13.0733 20.9116C13.8099 20.8135 14.515 20.6158 15.1746 20.3325C15.4431 20.2172 15.704 20.0877 15.9565 19.945C16.6834 19.534 17.3401 19.0133 17.904 18.4053C17.9155 18.3929 17.927 18.3805 17.9384 18.368C17.9546 18.3503 17.9708 18.3325 17.9869 18.3146C18.5197 17.7224 18.9659 17.0507 19.3056 16.3195C19.4431 16.0235 19.5631 15.7177 19.6643 15.4035C19.9153 14.6248 20.0508 13.7942 20.0508 12.9319L20.0508 10.6639C20.0508 10.401 19.8925 10.164 19.6496 10.0634C19.4069 9.96288 19.1277 10.0183 18.9418 10.2038L18.9412 10.2043L16.0763 13.0692C15.8225 13.3231 15.8225 13.7346 16.0763 13.9885C16.3301 14.2423 16.7417 14.2423 16.9955 13.9885L17.4145 13.5695L18.7508 12.2332L18.7508 12.9319L18.7508 12.9483C18.7498 13.3719 18.7098 13.7864 18.6341 14.1883C18.3781 15.5487 17.7139 16.7651 16.7736 17.7053C16.7715 17.7074 16.7694 17.7096 16.7672 17.7117C15.9876 18.4893 15.0189 19.0773 13.936 19.4009C13.5183 19.5257 13.0835 19.6112 12.636 19.653L12.636 10.067L15.3278 10.067C15.6868 10.067 15.9778 9.77601 15.9778 9.41703C15.9778 9.05804 15.6868 8.76703 15.3278 8.76703L12.636 8.76703L12.636 6.89678ZM11.3001 5.00226C11.3013 5.38782 11.6143 5.7 12.0001 5.7C12.3859 5.7 12.6989 5.38782 12.7001 5.00226L12.7001 5L12.7001 4.99774C12.6995 4.80609 12.6219 4.63257 12.4966 4.50651C12.4961 4.50602 12.4956 4.50552 12.4951 4.50502C12.4946 4.50453 12.4941 4.50404 12.4936 4.50354C12.367 4.37774 12.1926 4.3 12.0001 4.3C11.8072 4.3 11.6325 4.37805 11.5058 4.50431L11.5051 4.50502C11.3789 4.63121 11.3007 4.80533 11.3001 4.99774L11.3001 5L11.3001 5.00226L11.3001 5.00226Z"/></svg>

<svg xmlns="http://www.w3.org/2000/svg" fill="none" viewBox="0 0 24 24" focusable="false"><g fill="#74767B" fill-rule="evenodd"><path d="M14 5c0 .88-.58 1.63-1.37 1.89v1.87h2.69c.36 0 .65.29.65.65s-.29.65-.65.65h-2.69v9.59c3.43-.32 6.12-3.21 6.12-6.72v-.7l-1.76 1.75a.64.64 0 0 1-.92 0 .66.66 0 0 1 0-.92l2.87-2.86a.63.63 0 0 1 .7-.14c.25.1.41.34.41.6v2.27c0 4.44-3.61 8.05-8.05 8.05-4.45 0-8.06-3.61-8.06-8.05v-2.27c0-.26.16-.5.41-.6.24-.1.52-.05.7.14l2.87 2.86c.25.26.25.67 0 .92a.64.64 0 0 1-.92 0l-1.76-1.75v.7c0 3.5 2.67 6.38 6.09 6.72v-9.59H8.64c-.36 0-.65-.29-.65-.65s.29-.65.65-.65h2.69V6.88A1.98 1.98 0 0 1 10 5c0-1.11.89-2 2-2a2 2 0 0 1 2 2m-1.3 0c0 .38-.32.7-.7.7-.39 0-.7-.32-.7-.7 0-.39.31-.71.7-.71.38 0 .7.32.7.71"/><path d="M12.63 6.89a2.1 2.1 0 0 0 .78-.48c.13-.13.24-.28.33-.44A2.08 2.08 0 0 0 14 5a2.1 2.1 0 0 0-.26-.98c-.09-.16-.2-.31-.33-.44s-.28-.24-.44-.33c-.14-.08-.3-.15-.47-.19-.16-.04-.33-.06-.5-.06q-.27 0-.51.06c-.17.04-.33.11-.47.19-.16.09-.31.2-.44.33s-.24.28-.33.44c-.08.14-.15.3-.19.47Q10 4.73 10 5c0 .17.02.34.06.5.04.17.11.33.19.47.09.16.2.31.33.43v.01a2 2 0 0 0 .75.47v1.88H8.64c-.36 0-.65.29-.65.65s.29.65.65.65h2.69v9.59c-.45-.05-.88-.14-1.3-.26a6.9 6.9 0 0 1-2.81-1.69 6.77 6.77 0 0 1-1.98-4.77v-.7l1.34 1.33.42.42c.25.26.67.26.92 0 .25-.25.25-.66 0-.92L5.05 10.2a.63.63 0 0 0-.7-.14c-.25.1-.41.34-.41.6v2.27q.015 1.29.39 2.46c.1.31.22.62.36.92.35.77.83 1.47 1.39 2.08a8.03 8.03 0 0 0 4.8 2.51c.12.02.24.03.36.04.03.01.06.01.09.01a7.3 7.3 0 0 0 1.3 0h.09c.11-.01.23-.03.35-.04.73-.1 1.44-.3 2.1-.58q.405-.18.78-.39c.73-.41 1.39-.93 1.95-1.54q.02-.02.03-.04.03-.02.05-.05c.53-.59.98-1.26 1.32-2 .14-.29.26-.6.36-.91.25-.78.39-1.61.39-2.47v-2.27c0-.26-.16-.5-.41-.6a.63.63 0 0 0-.7.14l-2.87 2.86c-.25.26-.25.67 0 .92.26.26.67.26.92 0l.42-.42 1.34-1.33v.71c-.01.43-.05.84-.12 1.24a6.77 6.77 0 0 1-1.86 3.52l-.01.01c-.78.77-1.75 1.36-2.83 1.69-.42.12-.85.21-1.3.25v-9.59h2.69c.36 0 .65-.29.65-.65s-.29-.65-.65-.65h-2.69zM11.3 5c0 .38.31.7.7.7.38 0 .69-.32.7-.7v-.01a.73.73 0 0 0-.21-.49.69.69 0 0 0-.99 0c-.13.13-.2.3-.2.49z"/></g></svg>
